styles/4/Numix/32/places/grey-folder-hdd.svg

<?xml version="1.0" encoding="UTF-8" standalone="no"?>
<!-- Created with Inkscape (http://www.inkscape.org/) -->

<svg
   xmlns:dc="http://purl.org/dc/elements/1.1/"
   xmlns:cc="http://creativecommons.org/ns#"
   xmlns:rdf="http://www.w3.org/1999/02/22-rdf-syntax-ns#"
   xmlns:svg="http://www.w3.org/2000/svg"
   xmlns="http://www.w3.org/2000/svg"
   xmlns:sodipodi="http://sodipodi.sourceforge.net/DTD/sodipodi-0.dtd"
   xmlns:inkscape="http://www.inkscape.org/namespaces/inkscape"
   width="32"
   height="32"
   id="svg2"
   version="1.1"
   inkscape:version="0.91 r"
   sodipodi:docname="grey-folder-hdd.svg"
   inkscape:export-filename="/media/Data/Main/Visuals/Icons/Numix/Desktop/repos/numix-wiki/Gjorgi/Numix-folders/48/New/folder-144.png"
   inkscape:export-xdpi="270"
   inkscape:export-ydpi="270">
  <defs
     id="defs4" />
  <sodipodi:namedview
     id="base"
     pagecolor="#ffffff"
     bordercolor="#666666"
     borderopacity="1.0"
     inkscape:pageopacity="0.0"
     inkscape:pageshadow="2"
     inkscape:zoom="16"
     inkscape:cx="7.6431996"
     inkscape:cy="10.835688"
     inkscape:document-units="px"
     inkscape:current-layer="layer1"
     showgrid="true"
     inkscape:window-width="1280"
     inkscape:window-height="998"
     inkscape:window-x="0"
     inkscape:window-y="0"
     inkscape:window-maximized="1"
     showguides="true"
     inkscape:guide-bbox="true">
    <inkscape:grid
       type="xygrid"
       id="grid2985"
       empspacing="5"
       visible="true"
       enabled="true"
       snapvisiblegridlinesonly="true" />
  </sodipodi:namedview>
  <metadata
     id="metadata7">
    <rdf:RDF>
      <cc:Work
         rdf:about="">
        <dc:format>image/svg+xml</dc:format>
        <dc:type
           rdf:resource="http://purl.org/dc/dcmitype/StillImage" />
        <dc:title />
      </cc:Work>
    </rdf:RDF>
  </metadata>
  <g
     inkscape:label="Layer 1"
     inkscape:groupmode="layer"
     id="layer1"
     transform="translate(0,-1020.3622)">
    <path
       style="fill:#757575;fill-opacity:1;stroke:none"
       d="m 4,1025.3622 23.5,0 c 1,0 1.5,0.4999 1.5,1.4996 l 0,3.4991 c 0,0.5538 -0.4737,0.4998 -1,0.4998 l -24,0 c -0.5263,0 -1,-0.4459 -1,-0.9997 l 0,-4.4988 z"
       id="path3811"
       inkscape:connector-curvature="0"
       sodipodi:nodetypes="csssssscc" />
    <path
       style="opacity:0.02999998;fill:#000000;fill-opacity:1;stroke:none"
       d="m 3,1028.3622 0,2.5 26,0 0,-2.5 z"
       id="path3807"
       inkscape:connector-curvature="0" />
    <path
       style="fill:#757575;fill-opacity:1;stroke:none"
       d="m 3,1027.3622 0,-2.5 c 0,-1 0.4545455,-1.5 0.9090909,-1.5 l 5.1818181,0 c 0.454546,0 0.909091,0.5 0.909091,1.5 l 0,2.5 z"
       id="rect3760"
       inkscape:connector-curvature="0"
       sodipodi:nodetypes="csssscc" />
    <rect
       style="fill:#bdbdbd;fill-opacity:1;stroke:none"
       id="rect2990"
       width="30"
       height="20"
       x="1"
       y="1029.3622"
       rx="2"
       ry="1.6666666" />
    <path
       style="opacity:0.1;fill:#ffffff;fill-opacity:1;stroke:none"
       d="m 3,1029.3622 c -1.108,0 -2,0.7485 -2,1.6719 l 0,1 c 0,-0.9234 0.892,-1.6719 2,-1.6719 l 26,0 c 1.108,0 2,0.7485 2,1.6719 l 0,-1 c 0,-0.9234 -0.892,-1.6719 -2,-1.6719 l -26,0 z"
       id="rect3004"
       inkscape:connector-curvature="0" />
    <path
       style="opacity:0.05;fill:#000000;fill-opacity:1;stroke:none"
       d="m 10,1025.3622 0,1 1,0 16.5,0 c 1,0 1.5,0.5002 1.5,1.5 l 0,-1 c 0,-0.9997 -0.5,-1.5 -1.5,-1.5 l -16.5,0 z"
       id="path3781"
       inkscape:connector-curvature="0"
       sodipodi:nodetypes="cccscsscc" />
    <path
       style="opacity:0.05;fill:#000000;fill-opacity:1;stroke:none"
       d="m 3.90625,1023.3622 c -0.4545454,0 -0.90625,0.5 -0.90625,1.5 l 0,1 c 0,-1 0.4517046,-1.5 0.90625,-1.5 l 5.1875,0 c 0.454546,0 0.90625,0.5 0.90625,1.5 l 0,-1 c 0,-1 -0.451704,-1.5 -0.90625,-1.5 l -5.1875,0 z"
       id="path3801"
       inkscape:connector-curvature="0" />
    <path
       style="opacity:1.0;fill:#7f7f7f;fill-opacity:1;stroke:none"
       d="M 12 13 C 11.287715 13 11 13.3352 11 14 L 11 24 C 11 24.6648 11.287715 25 12 25 L 19.71875 25 C 20.431036 25 21 24.6648 21 24 L 21 14 C 21 13.3352 20.712286 13 20 13 L 12 13 z M 12.5 14 C 12.776142 14 13 14.223858 13 14.5 C 13 14.776142 12.776142 15 12.5 15 C 12.223858 15 12 14.776142 12 14.5 C 12 14.223858 12.223858 14 12.5 14 z M 19.5 14 C 19.776142 14 20 14.223858 20 14.5 C 20 14.776142 19.776142 15 19.5 15 C 19.223858 15 19 14.776142 19 14.5 C 19 14.223858 19.223858 14 19.5 14 z M 16 15 C 17.104569 15 18 15.895431 18 17 C 18 18.104569 17.104569 19 16 19 C 14.895431 19 14 18.104569 14 17 C 14 15.895431 14.895431 15 16 15 z M 12.5 19 C 12.776142 19 13 19.223858 13 19.5 C 13 19.776142 12.776142 20 12.5 20 C 12.223858 20 12 19.776142 12 19.5 C 12 19.223858 12.223858 19 12.5 19 z M 19.5 19 C 19.776142 19 20 19.223858 20 19.5 C 20 19.776142 19.776142 20 19.5 20 C 19.223858 20 19 19.776142 19 19.5 C 19 19.223858 19.223858 19 19.5 19 z M 12.5 23 L 19.5 23 C 19.777 23 20 23.223 20 23.5 C 20 23.777 19.777 24 19.5 24 L 12.5 24 C 12.223 24 12 23.777 12 23.5 C 12 23.223 12.223 23 12.5 23 z "
       transform="translate(0,1020.3622)"
       id="rect3828" />
  </g>
</svg>

<!-- Created with Inkscape (http://www.inkscape.org/) -->
<svg xmlns="http://www.w3.org/2000/svg" viewBox="0 0 32 32">
 <g transform="translate(0,-1020.3622)">
  <path d="m 4 1025.36 23.5 0 c 1 0 1.5 0.5 1.5 1.5 l 0 3.499 c 0 0.554 -0.474 0.5 -1 0.5 l -24 0 c -0.526 0 -1 -0.446 -1 -1 l 0 -4.499 z" style="fill:#757575;fill-opacity:1;stroke:none"/>
  <path d="m 3 1028.36 0 2.5 26 0 0 -2.5 z" style="fill:#000;opacity:0.03;fill-opacity:1;stroke:none"/>
  <path d="m 3 1027.36 0 -2.5 c 0 -1 0.455 -1.5 0.909 -1.5 l 5.182 0 c 0.455 0 0.909 0.5 0.909 1.5 l 0 2.5 z" style="fill:#757575;fill-opacity:1;stroke:none"/>
  <rect width="30" height="20" x="1" y="1029.36" rx="2" ry="1.667" style="fill:#bdbdbd;fill-opacity:1;stroke:none"/>
  <path d="m 3 1029.36 c -1.108 0 -2 0.748 -2 1.672 l 0 1 c 0 -0.923 0.892 -1.672 2 -1.672 l 26 0 c 1.108 0 2 0.748 2 1.672 l 0 -1 c 0 -0.923 -0.892 -1.672 -2 -1.672 l -26 0 z" style="fill:#fff;opacity:0.1;fill-opacity:1;stroke:none"/>
  <path d="m 10 1025.36 0 1 1 0 16.5 0 c 1 0 1.5 0.5 1.5 1.5 l 0 -1 c 0 -1 -0.5 -1.5 -1.5 -1.5 l -16.5 0 z" style="fill:#000;opacity:0.05;fill-opacity:1;stroke:none"/>
  <path d="m 3.906 1023.36 c -0.455 0 -0.906 0.5 -0.906 1.5 l 0 1 c 0 -1 0.452 -1.5 0.906 -1.5 l 5.188 0 c 0.455 0 0.906 0.5 0.906 1.5 l 0 -1 c 0 -1 -0.452 -1.5 -0.906 -1.5 l -5.188 0 z" style="fill:#000;opacity:0.05;fill-opacity:1;stroke:none"/>
  <path d="m 12 13 c -0.712 0 -1 0.335 -1 1 l 0 10 c 0 0.665 0.288 1 1 1 l 7.719 0 c 0.712 0 1.281 -0.335 1.281 -1 l 0 -10 c 0 -0.665 -0.288 -1 -1 -1 l -8 0 z m 0.5 1 c 0.276 0 0.5 0.224 0.5 0.5 c 0 0.276 -0.224 0.5 -0.5 0.5 c -0.276 0 -0.5 -0.224 -0.5 -0.5 c 0 -0.276 0.224 -0.5 0.5 -0.5 z m 7 0 c 0.276 0 0.5 0.224 0.5 0.5 c 0 0.276 -0.224 0.5 -0.5 0.5 c -0.276 0 -0.5 -0.224 -0.5 -0.5 c 0 -0.276 0.224 -0.5 0.5 -0.5 z m -3.5 1 c 1.105 0 2 0.895 2 2 c 0 1.105 -0.895 2 -2 2 c -1.105 0 -2 -0.895 -2 -2 c 0 -1.105 0.895 -2 2 -2 z m -3.5 4 c 0.276 0 0.5 0.224 0.5 0.5 c 0 0.276 -0.224 0.5 -0.5 0.5 c -0.276 0 -0.5 -0.224 -0.5 -0.5 c 0 -0.276 0.224 -0.5 0.5 -0.5 z m 7 0 c 0.276 0 0.5 0.224 0.5 0.5 c 0 0.276 -0.224 0.5 -0.5 0.5 c -0.276 0 -0.5 -0.224 -0.5 -0.5 c 0 -0.276 0.224 -0.5 0.5 -0.5 z m -7 4 l 7 0 c 0.277 0 0.5 0.223 0.5 0.5 c 0 0.277 -0.223 0.5 -0.5 0.5 l -7 0 c -0.277 0 -0.5 -0.223 -0.5 -0.5 c 0 -0.277 0.223 -0.5 0.5 -0.5 z" transform="translate(0,1020.3622)" style="fill:#7f7f7f;opacity:1;fill-opacity:1;stroke:none"/>
 </g>
</svg>
